!!!COM:	la Rue, Pierre de
!!!CDT:	~1452///-1518/11/20
!!!OPR:	Missa Alleluia
!!!ONM:	2
!!!OTL:	Gloria
!!!AGN:	Mass; Gloria
!!!SCT:	Rue1001b
!!!SCA:	Rue1001b
!!!voices:	5
!!!voices-OPR:	5
**kern	**kern	**kern	**kern	**kern
*staff5	*staff4	*staff3	*staff2	*staff1
*Ivox	*Ivox	*Ivox	*Ivox	*Ivox
*I"Bassus2	*I"Bassus1	*I"Tenor	*I"Cantus	*I"Discantus
*I'B2	*I'B1	*I'T	*I'Cn	*I'D
*>[A,B]	*>[A,B]	*>[A,B]	*>[A,B]	*>[A,B]
*>A	*>A	*>A	*>A	*>A
*clefF4	*clefF4	*clefGv2	*clefGv2	*clefG2
*k[b-]	*k[b-]	*k[b-]	*k[b-]	*k[b-]
*M3/1	*M3/1	*M3/1	*M3/1	*M3/1
*met(O)	*met(O)	*met(O)	*met(O)	*met(O)
!!section: Et in terra pax
!!!OMD: Et in terra pax
*	*	*rscale:1/2	*	*
=1-	=1-	=1-	=1-	=1-
!	!	!LO:N:vis=0.	!	!
!	!	!LO:TX:X=-40:Z=8:t=Crescit in duplo	!	!
0.r	0.r	0.r	1r	1.f
.	.	.	1r	.
.	.	.	.	2g/
.	.	.	1F	1a
=2	=2	=2-	=2	=2
0.r	0.r	0.ryy	1B-	1.d
.	.	.	1B-	.
.	.	.	.	2e/
.	.	.	1A	1f
=3	=3	=3	=3	=3
!	!	!LO:N:vis=0.	!	!
0.r	0.r	0.r	0G	2B-/
.	.	.	.	2b-\
.	.	.	.	2b-\
.	.	.	.	2b-\
.	.	.	2r	2a/
.	.	.	2d\	[2b-\
=4	=4	=4-	=4	=4
0.r	0.r	0.ryy	2d\	2b-\]
.	.	.	2d\	4a/
.	.	.	.	4g/
.	.	.	2.c\	2a/
.	.	.	.	2.g/
.	.	.	4B-\	.
.	.	.	2G/	.
.	.	.	.	4f/
.	.	.	2A/	2e/
=5	=5	=5	=5	=5
!	!	!LO:N:vis=0.	!	!
0.r	0.r	0.r	2B-\	2d/
.	.	.	1c	2e/
.	.	.	.	2f/
.	.	.	2G/	2g/
.	.	.	2A/	2r
.	.	.	2B-\	2d/
=6	=6	=6-	=6	=6
0.r	0.r	0.ryy	1c	2e/
.	.	.	.	2.g/
.	.	.	2r	.
.	.	.	.	4f/
.	.	.	2G/	4e/
.	.	.	.	4d/
.	.	.	2A/	1c
.	.	.	[2c\	.
=7	=7	=7	=7	=7
!	!	!LO:N:vis=0.	!	!
0.r	0.r	0.r	4c\]	2r
.	.	.	4B-\	.
.	.	.	4A/	2g/
.	.	.	4G/	.
.	.	.	1F	2a/
.	.	.	.	2.cc\
.	.	.	2r	.
.	.	.	.	4b-\
.	.	.	2c\	4a/
.	.	.	.	4g/
=8	=8	=8-	=8	=8
0.r	1.F	0.ryy	2d\	2b-\
.	.	.	2.f\	1a
.	.	.	4e\	.
.	2G\	.	1d	4g/
.	.	.	.	4f/
.	1A	.	.	1e
.	.	.	2c#i\	.
=9	=9	=9	=9	=9
!	!	!LO:N:vis=0	!	!
0.r	1.D	0.r	2d\	2d/
.	.	.	1f	2d/
.	.	.	.	2f/
.	2E\	.	4e\	2g/
.	.	.	4d\	.
.	1F	.	2c\	1a
.	.	.	2c\	.
=10	=10	=10-	=10	=10
1BB-	2BB-/	1ryy	2B-\	1d
.	2BB-/	.	1d	.
2BB-/	2D\	0F	.	1r
2C/	2E\	.	4c\	.
.	.	.	4B-\	.
1D	1F	.	4A/	1r
.	.	.	4G/	.
.	.	.	2A/	.
=11	=11	=11	=11	=11
!	!	!LO:N:vis=0	!	!
1GG	2BB-/	[y0.B-	1G	2r
.	2.D\	.	.	2d/
2r	.	.	2r	2d/
.	4E\	.	.	.
2BB-/	2.F\	.	2d\	2d/
2.BB-/	.	.	2d\	1f
.	4E\	.	.	.
.	4D\	.	2d\	.
4AA/	4C/	.	.	.
=12	=12	=12-	=12	=12
2GG/	2.BB-/	1B-]yy	2e\	1g
2GG/	.	.	2e\	.
.	4AA/	.	.	.
0FF	2C/	0A	2f\	2a/
.	2D\	.	2.f\	2a/
.	1C	.	.	2a/
.	.	.	4e\	.
.	.	.	2c\	[2cc\
=13	=13	=13	=13	=13
!	!	!LO:N:vis=0	!	!
1r	2r	[y0.G	1d	2cc\]
.	2G\	.	.	2b-\
1r	2E\	.	2r	2g/
.	2G\	.	2d\	2b-\
1GG	4G\	.	2B-\	4b-\
.	4F\	.	.	4a/
.	4E\	.	2B-\	4g/
.	4D\	.	.	4f/
=14	=14	=14-	=14	=14
1C	2C/	1G]yy	2.c\	1e
.	2E\	.	.	.
.	.	.	4B-\	.
2C/	4E\	0c	2G/	2r
.	4D\	.	.	.
1C	4C/	.	2.A/	1e
.	4BB-/	.	.	.
.	1AA	.	.	.
.	.	.	4B-\	.
2C/	.	.	2c\	2e/
=15	=15	=15	=15	=15
1D	0.r	1B-	1F	1f
2C/	.	0c	2G/	2e/
2FF/	.	.	2.A/	2.a/
4FF/	.	.	.	.
4GG/	.	.	4B-\	4g/
4AA/	.	.	2c\	[2f/
4BB-/	.	.	.	.
=16	=16	=16-	=16	=16
1C	0.r	1G	1c	2f/]
.	.	.	.	2e/
2r	.	0A	0c	1f
2FF/	.	.	.	.
4FF/	.	.	.	1r
4GG/	.	.	.	.
4AA/	.	.	.	.
4BB-/	.	.	.	.
=17	=17	=17	=17	=17
!	!	!LO:N:vis=0.	!	!
2C/	2r	[y0.G	1r	0.r
2C/	2.C/	.	.	.
2.E-\	.	.	2r	.
.	4D\	.	.	.
.	4E\	.	2G/	.
4D\	4F\	.	.	.
2BB-/	2G\	.	4G/	.
.	.	.	4A/	.
[2C/	2E\	.	4B-\	.
.	.	.	4c\	.
=18	=18	=18-	=18	=18
2C/]	1D	0.G]yy	2d\	1r
2BB-/	.	.	2d\	.
1C	2.C/	.	2.e\	2r
.	.	.	.	2c/
.	4D\	.	4d\	.
[1C	2E\	.	2c\	4c/
.	.	.	.	4d/
.	[2F\	.	4B-\	4e/
.	.	.	4A/	4f/
=19	=19	=19	=19	=19
!	!	!LO:N:vis=0.	!	!
1C]	2F\]	0.r	1G	1g
.	2E\	.	.	.
2r	1F	.	2r	2a/
2FF/	.	.	2A/	1cc
4FF/	1r	.	4A/	.
4GG/	.	.	4B-\	.
4AA/	.	.	4c\	4b-\
4BB-/	.	.	4d\	4a/
=20	=20	=20-	=20	=20
2C/	1G	0.ryy	2e\	2g/
2C/	.	.	2e\	4a/
.	.	.	.	4g/
2FF/	2F\	.	2.f\	2a/
2.F\	2.D\	.	.	2a/
.	.	.	4e\	.
.	.	.	4d\	2.a/
4E\	4E\	.	8c\L	.
.	.	.	8B-\J	.
2D\	4F\	.	4A/	.
.	4G\	.	4B-\	4g/
=21	=21	=21	=21	=21
!	!	!LO:N:vis=0	!	!
2C/	2A\	0.r	2c\	2e/
2BB-/	2D\	.	2d\	4d/
.	.	.	.	4e/
2AA/	2r	.	2c\	4f/
.	.	.	.	8e/L
.	.	.	.	8f/J
2GG/	2D\	.	1d	2.g/
2BB-/	4D\	.	.	.
.	4E\	.	.	4f/
2D\	4F\	.	[2d\	2f/
.	4G\	.	.	.
=22	=22	=22-	=22	=22
1AA	1A	1ryy	4d\]	1e
.	.	.	4c#i\	.
.	.	.	2c#i\	.
1BB-	1D	0F	1d	1d
1r	1r	.	1r	1r
=23	=23	=23	=23	=23
1BB-	1D	0B-	1.d	1f
2BB-/	2D\	.	.	2f/
2BB-/	2D\	.	2d\	2f/
!	!	!LO:N:vis=1	!	!
[1GG	[1BB-	[y1B-	1d	[1g
=24	=24	=24-	=24	=24
1GG]	1BB-]	1B-]yy	1e	1g]
1FF	1C	0A	2.f\	2a/
.	.	.	.	1a
.	.	.	4e\	.
1FF	2.F\	.	2c\	.
.	.	.	[2c\	4g/
.	4E\	.	.	4f/
=25	=25	=25	=25	=25
!	!	!LO:N:vis=0	!	!
2.C/	2C/	[y0.G	2c\]	2e/
.	2.E\	.	2c\	2g/
4BB-/	.	.	.	.
0GG	.	.	2.B-\	4g/
.	4F\	.	.	4f/
.	4G\	.	.	1d
.	4F\	.	4c\	.
.	[1D	.	4d\	.
.	.	.	4c\	.
.	.	.	4B-\	2b-\
.	.	.	4A/	.
=26	=26	=26-	=26	=26
1GG	1D]	1G]yy	2.B-\	4b-\
.	.	.	.	4a/
.	.	.	.	4g/
.	.	.	4c\	4f/
1AA	2C/	0c	1c	2e/
.	4C/	.	.	2a/
.	4D\	.	.	.
1r	2E\	.	1r	2g/
.	2F\	.	.	[2f/
=27	=27	=27	=27	=27
1r	1G	1B-	1r	2f/]
.	.	.	.	2e/
1FF	0F	0c	2r	1f
.	.	.	2A/	.
2FF/	.	.	2A/	2r
2FF/	.	.	2A/	2a/
=28	=28	=28-	=28	=28
2.AA/	2r	1A	1c	2a/
.	2E\	.	.	1cc
4BB-/	.	.	.	.
2C/	2E\	0G	2G/	.
4GG/	2D\	.	2.B-\	2b-\
2BB-/	.	.	.	.
.	4D\	.	.	4g/
4AA/	2C/	.	4c\	4a/
2GG/	.	.	2d\	2b-\
.	4BB-/	.	.	.
=29	=29	=29	=29	=29
1FF	2C/	1.A	2r	2a/
.	1F	.	2.c\	4f/
.	.	.	.	4g/
2FF/	.	.	.	2a/
.	.	.	4B-\	.
2GG/	2D\	2B-\	2B-\	2g/
2.C/	1E	1c	[1G	4e/
.	.	.	.	4f/
.	.	.	.	[2g/
4BB-/	.	.	.	.
=30	=30	=30-	=30	=30
1GG	1D	1.B-	1G]	4g/]
.	.	.	.	4f/
.	.	.	.	2.d/
2D\	1r	.	1r	.
.	.	.	.	4f/
2AA/	.	2c\	.	2e/
2r	1D	1d	1B-	1d
2BB-/	.	.	.	.
=31	=31	=31	=31	=31
2C/	1E	0c	2G/	2r
1AA	.	.	2.c\	2a/
.	1C	.	.	2a/
.	.	.	4B-\	.
1FF	.	.	4A/	2.cc\
.	.	.	4G/	.
.	2.F\	1A	2F/	.
.	.	.	.	4b-\
2FF/	.	.	2c\	4a/
.	4E\	.	.	4g/
=32	=32	=32-	=32	=32
2BB-/	4D\	1B-	0d	2f/
.	4C/	.	.	.
2.GG/	2.BB-/	.	.	1g
.	.	0G	.	.
4AA/	4C/	.	.	.
2BB-/	2D\	.	.	1f
1C	2E\	.	2.c\	.
.	2C/	.	.	2e/
.	.	.	4B-\	.
=33	=33	=33	=33	=33
0.FFl	1D	0.Fl	0.Al	0.fl
.	0Cl	.	.	.
!!LO:LB:i:g=z
*	*	*rscale:1	*	*
=34||	=34||	=34||	=34||	=34||
*>B	*>B	*>B	*>B	*>B
*clefF4	*clefF4	*clefGv2	*clefGv2	*clefG2
*k[b-]	*k[b-]	*k[b-]	*k[b-]	*k[b-]
*M2/1	*M2/1	*M2/1	*M2/1	*M2/1
*met(C|)	*met(C|)	*met(Cr)	*met(C|)	*met(C|)
!!section: Qui tollis
!!!OMD: Qui tollis
1FF	1C	[0F	0r	0r
2.FF/	2C/	.	.	.
.	[2D\	.	.	.
4GG/	.	.	.	.
=35	=35	=35	=35	=35
2AA/	2D\]	0F_	1r	0r
1BB-	4C/	.	.	.
.	4BB-/	.	.	.
.	1C	.	1c	.
2AA/	.	.	.	.
=36	=36	=36	=36	=36
0BB-	0BB-	0F_	1d	1f
.	.	.	2d\	2.f/
.	.	.	[2d\	.
.	.	.	.	4g/
=37	=37	=37	=37	=37
0r	0r	0F]	2d\]	2a/
.	.	.	4c\	1b-
.	.	.	4B-\	.
.	.	.	1c	.
.	.	.	.	2a/
=38	=38	=38	=38	=38
1GG	2.BB-/	0G	0B-	0b-
.	4C/	.	.	.
2.BB-/	2D\	.	.	.
.	2BB-/	.	.	.
4C/	.	.	.	.
=39	=39	=39	=39	=39
2D\	1F	1B-	2r	2r
2BB-/	.	.	2d\	2f/
1F	1FF	1A	2c\	2.f/
.	.	.	[2f\	.
.	.	.	.	4g/
=40	=40	=40	=40	=40
1r	0F	0c	2f\]	2a/
.	.	.	4e\	1b-
.	.	.	4d\	.
1FF	.	.	1c	.
.	.	.	.	2a/
=41	=41	=41	=41	=41
1BB-	0r	1d	1B-	1b-
[1E-	.	2c\	1r	[1g
.	.	[2B-\	.	.
=42	=42	=42	=42	=42
3E-\]	0r	1B-]	0r	1g]
3%2E-	.	.	.	.
1C	.	1c	.	1e
=43	=43	=43	=43	=43
2.D\	0r	2B-\	1.d	1.f
.	.	1.A	.	.
4E\	.	.	.	.
1F	.	.	.	.
.	.	.	2c\	4e/
.	.	.	.	4d/
=44	=44	=44	=44	=44
1C	2r	0G	2.c\	0e
.	2G\	.	.	.
.	.	.	4B-\	.
2r	2G\	.	2B-\	.
[2C/	[2E\	.	[2c\	.
=45	=45	=45	=45	=45
2C/]	2E\]	1A	4c\]	0r
.	.	.	4d\	.
1C	2.C/	.	2e\	.
.	.	[1c	1A	.
.	4D\	.	.	.
[2AA/	2E\	.	.	.
=46	=46	=46	=46	=46
4AA/]	2F\	1c]	1c	1r
4BB-/	.	.	.	.
4C/	2E\	.	.	.
4BB-/	.	.	.	.
1GG	1D	1B-	1d	2r
.	.	.	.	[2g/
=47	=47	=47	=47	=47
0C	1C	0c	1.e	2g/]
.	.	.	.	1g
.	1r	.	.	.
.	.	.	4d\	[2e/
.	.	.	4c\	.
=48	=48	=48	=48	=48
0r	0r	[0G	2B-\	4e/]
.	.	.	.	4f/
.	.	.	1c	4g/
.	.	.	.	4f/
.	.	.	.	1d
.	.	.	2Bni\	.
=49	=49	=49	=49	=49
2r	1C	0G]	1c	2.e/
1C	.	.	.	.
.	.	.	.	4f/
.	1D	.	1r	1g
2BB-/	.	.	.	.
=50	=50	=50	=50	=50
2C/	1E	0A	0r	0r
2C/	.	.	.	.
1D	1F	.	.	.
=51	=51	=51	=51	=51
4D\	2F\	[0B-	0r	1.r
4C/	.	.	.	.
4BB-/	1G	.	.	.
4AA/	.	.	.	.
1GG	.	.	.	.
.	4F\	.	.	[2g/
.	4E\	.	.	.
=52	=52	=52	=52	=52
1r	1D	0B-]	2r	2g/]
.	.	.	2d\	2f/
2.GG/	1G	.	2d\	2g/
.	.	.	2e\	2g/
4GG/	.	.	.	.
=53	=53	=53	=53	=53
1D	0r	0F	2f\	1a
.	.	.	1d	.
2D\	.	.	.	4a/
.	.	.	.	4g/
[2F\	.	.	4c\	4f/
.	.	.	4B-\	4e/
=54	=54	=54	=54	=54
2F\]	2r	0r	2A/	2d/
4E\	2F\	.	2B-\	1f
4D\	.	.	.	.
2C/	2G\	.	1c	.
2C/	2G\	.	.	2e/
=55	=55	=55	=55	=55
1AA	2A\	0r	1F	4f/
.	.	.	.	4e/
.	2A\	.	.	4d/
.	.	.	.	4c/
1GG	1B-	.	2r	1d
.	.	.	2G/	.
=56	=56	=56	=56	=56
1C	2A\	0r	2A/	1c
.	1G	.	1c	.
2AA/	.	.	.	2r
2BB-/	[2F\	.	[2d\	2f/
=57	=57	=57	=57	=57
1GG	2F\]	0r	2d\]	2g/
.	2E\	.	4c\	2g/
.	.	.	4B-\	.
1FF	1F	.	2A/	2a/
.	.	.	2A/	2a/
=58	=58	=58	=58	=58
1r	0r	[0G	1d	1b-
1C	.	.	1c	2a/
.	.	.	.	[2g/
=59	=59	=59	=59	=59
1BB-	0r	0G]	1d	2g/]
.	.	.	.	1f
1C	.	.	1c	.
.	.	.	.	2e/
=60	=60	=60	=60	=60
1FF	0r	0A	2r	2f/
.	.	.	2d\	2f/
1r	.	.	2c\	2e/
.	.	.	4B-\	4d/
.	.	.	4A/	4c/
=61	=61	=61	=61	=61
1r	1r	1G	1B-	1d
2r	1A	[1c	1c	1c
2F\	.	.	.	.
=62	=62	=62	=62	=62
2E\	2G\	1c]	0r	0r
4D\	4F\	.	.	.
4C/	4E\	.	.	.
1D	1F	1B-	.	.
=63	=63	=63	=63	=63
0C	1G	0c	2r	2r
.	.	.	2G/	2c/
.	1E	.	2c\	2e/
.	.	.	2c\	2e/
=64	=64	=64	=64	=64
0r	0r	[0G	2.B-\	2.d/
.	.	.	4A/	4c/
.	.	.	1B-	1d
=65	=65	=65	=65	=65
1C	2r	0G]	0c	1c
.	2C/	.	.	.
2E\	2G\	.	.	1r
2E\	2G\	.	.	.
=66	=66	=66	=66	=66
2.D\	2.F\	0A	0r	0r
4C/	4E\	.	.	.
1D	1F	.	.	.
=67	=67	=67	=67	=67
0GG	0G	[0B-	0r	2r
.	.	.	.	2g/
.	.	.	.	2g/
.	.	.	.	[2g/
=68	=68	=68	=68	=68
2r	0r	0B-]	1r	2g/]
2G\	.	.	.	4f/
.	.	.	.	4e/
2.G\	.	.	2r	2.d/
.	.	.	2d\	.
4F\	.	.	.	4e/
=69	=69	=69	=69	=69
2D\	0r	0F	2d\	2f/
2E\	.	.	4c\	4e/
.	.	.	4B-\	4d/
2.F\	.	.	4A/	4c/
.	.	.	4G/	4B-/
.	.	.	2B-\	[2d/
4E\	.	.	.	.
=70	=70	=70	=70	=70
2C/	0r	0r	1c	2d/]
2E\	.	.	.	1c
1D	.	.	1d	.
.	.	.	.	2Bni/
=71	=71	=71	=71	=71
[0C	2r	0r	0e	0c
.	2C/	.	.	.
.	2G\	.	.	.
.	2C/	.	.	.
=72	=72	=72	=72	=72
0C_	2.G\	0r	2r	1r
.	.	.	2e\	.
.	4C/	.	.	.
.	2G\	.	2e\	2r
.	2A\	.	[2e\	2c/
=73	=73	=73	=73	=73
0C]	2G\	0r	2e\]	2g/
.	2A\	.	1e	2c/
.	2.E\	.	.	2.g/
.	.	.	4d\	.
.	4F\	.	4c\	4c/
=74	=74	=74	=74	=74
2r	2G\	0r	2e\	2g/
2FF/	2F\	.	2f\	2a/
2C/	2E\	.	1c	2g/
2FF/	[2F\	.	.	[2a/
=75	=75	=75	=75	=75
1C	2F\]	0r	0c	2a/]
.	2E\	.	.	2g/
[1FF	1F	.	.	1a
=76	=76	=76	=76	=76
1FF]	2r	0r	2r	2r
.	2A\	.	2f\	2c/
1r	2G\	.	2.e\	2g/
.	2A\	.	.	2c/
.	.	.	4c\	.
=77	=77	=77	=77	=77
1r	2G\	0r	2d\	2g/
.	2G\	.	2e\	2g/
2r	2.F\	.	1f	2a/
2FF/	.	.	.	[2cc\
.	4E\	.	.	.
=78	=78	=78	=78	=78
2C/	0C	0r	2r	4cc\]
.	.	.	.	4b-\
2FF/	.	.	2f\	2a/
2C/	.	.	2e\	2g/
[2FF/	.	.	[2f\	[2a/
=79	=79	=79	=79	=79
4FF/]	0r	0r	2f\]	2a/]
4GG/	.	.	.	.
4AA/	.	.	4e\	4g/
4BB-/	.	.	4d\	4f/
2.C/	.	.	[1c	1e
4D\	.	.	.	.
=80	=80	=80	=80	=80
2E\	2r	0r	2c\]	0r
1F	2F\	.	4B-\	.
.	.	.	4A/	.
.	2G\	.	1B-	.
2E\	2G\	.	.	.
=81	=81	=81	=81	=81
1F	2A\	0r	1A	0r
.	1c	.	.	.
2E\	.	.	1r	.
2C/	2A\	.	.	.
=82	=82	=82	=82	=82
1D	4B-\	0r	1r	2r
.	4A\	.	.	.
.	4G\	.	.	2f/
.	4F\	.	.	.
1C	2.E\	.	[1c	2g/
.	.	.	.	2g/
.	4D\	.	.	.
=83	=83	=83	=83	=83
2FF/	1F	0r	2c\]	2a/
2F\	.	.	4B-\	1cc
.	.	.	4A/	.
2E\	1r	.	2G/	.
2C/	.	.	[2c\	2a/
=84	=84	=84	=84	=84
1D	2r	0r	2c\]	4b-\
.	.	.	.	4a/
.	2F\	.	2B-\	4g/
.	.	.	.	4f/
1C	2G\	.	1c	2.e/
.	2G\	.	.	.
.	.	.	.	4d/
=85	=85	=85	=85	=85
1FF	1A	1F	2r	1f
.	.	.	2c\	.
1r	2G\	[1B-	1d	2r
.	2D\	.	.	2f/
=86	=86	=86	=86	=86
1r	1G	1B-]	1e	1g
1FF	1F	1A	1f	2a/
.	.	.	.	[2cc\
=87	=87	=87	=87	=87
1.C	1G	0G	0e	2cc\]
.	.	.	.	4b-\
.	.	.	.	4a/
.	1E	.	.	4b-\
.	.	.	.	4a/
2C/	.	.	.	4g/
.	.	.	.	4f/
=88	=88	=88	=88	=88
1C	1G	1c	0r	0e
1r	2G\	2B-\	.	.
.	[2A\	[2c\	.	.
=89	=89	=89	=89	=89
1r	4A\]	2c\]	2r	1r
.	4G\	.	.	.
.	2E\	2G/	2c\	.
1FF	[1F	1A	2c\	2r
.	.	.	2c\	2f/
=90	=90	=90	=90	=90
2.BB-/	2F\]	0G	1d	2g/
.	4E\	.	.	2g/
4AA/	4D\	.	.	.
1GG	1E	.	2.B-\	1b-
.	.	.	4c\	.
=91	=91	=91	=91	=91
0FF	0F	0r	2d\	2a/
.	.	.	1c	1cc
.	.	.	2c\	2a/
=92	=92	=92	=92	=92
0r	2r	0r	4d\	4b-\
.	.	.	4c\	4a/
.	2F\	.	4B-\	4g/
.	.	.	4A/	4f/
.	2G\	.	2.B-\	2.e/
.	2G\	.	.	.
.	.	.	4A/	4d/
=93	=93	=93	=93	=93
0r	2A\	1F	1c	1f
.	2F\	.	.	.
.	4G\	[1B-	1r	1r
.	4F\	.	.	.
.	4E\	.	.	.
.	4D\	.	.	.
=94	=94	=94	=94	=94
1r	2.E\	1B-]	0r	2r
.	.	.	.	2g/
.	4D\	.	.	.
1FF	1F	1A	.	2a/
.	.	.	.	[2cc\
=95	=95	=95	=95	=95
1GG	0r	0G	1d	2cc\]
.	.	.	.	2b-\
[1C	.	.	2c\	2.cc\
.	.	.	[2e\	.
.	.	.	.	4b-\
=96	=96	=96	=96	=96
2C/]	0r	1c	2e\]	1g
4BB-/	.	.	4d\	.
4AA/	.	.	4c\	.
2GG/	.	2B-\	2d\	2r
2C/	.	[2c\	2e\	2g/
=97	=97	=97	=97	=97
1FF	1r	2c\]	1c	2a/
.	.	2A/	.	1cc
2r	1G	1G	1d	.
2BB-/	.	.	.	2b-\
=98	=98	=98	=98	=98
2AA/	2C/	2.A/	2.c\	2.cc\
2.C/	2C/	.	.	.
.	.	4B-\	4d\	4b-\
.	2.G\	2c\	4e\	4g/
4BB-/	.	.	4f\	4a/
4GG/	.	[2B-\	[2g\	[2b-\
4AA/	4F\	.	.	.
=99	=99	=99	=99	=99
2.BB-/	4D\	4B-\]	4g\]	4b-\]
.	4E\	4c\	4f\	4a/
.	2.F\	2d\	4d\	4f/
4AA/	.	.	4e\	4g/
4FF/	.	1c	2.f\	2.a/
4GG/	4E\	.	.	.
[2AA/	4C/	.	.	.
.	4D\	.	4e\	4g/
=100	=100	=100	=100	=100
2AA/]	4E\	2A/	2c\	4e/
.	4C/	.	.	4f/
2GG/	1D	2B-\	1B-	2.g/
2BB-/	.	1G	.	.
.	.	.	.	4d/
2C/	2C/	.	2G/	2e/
=101	=101	=101	=101	=101
2FF/	2.F\	[0Fl	2A/	[0fl
2.BB-/	.	.	4B-\	.
.	4E\	.	4c\	.
.	4D\	.	4d\	.
4C/	4C/	.	4e\	.
4D\	[2BB-/	.	4f\	.
4E\	.	.	4e\	.
=102	=102	=102	=102	=102
2F\	2BB-/]	0F_	4d\	0f_
.	.	.	4c\	.
2FF/	2C/	.	1c	.
1BB-	1D	.	.	.
.	.	.	2B-\	.
=103	=103	=103	=103	=103
0FFl	0Cl	0F]	0cl	0f]
*	*	*rscale:1	*	*
==	==	==	==	==
*-	*-	*-	*-	*-
!!!RDF**kern: l=long note in original notation
!!!RDF**kern: i=editorial accidental
!!!RDF**kern: V=start of tuplet marker
!!!RDF**kern: Z=end of tuplet marker
!!!ENC:	Megan K. Eagen 1/11/2012
!!!END:	2013/08/09/
!!!EED:	Jesse Rodin
!!!EEV:	2013/08/09/
!!!ONB:	Translated from MusicXML and edited on 2013/08/09/ by Craig Sapp
!!muse2ps: T^@{OPR}^u^@{ONM}{. }@{OTL}^C^@{COM}^i2I150v85,85,85,85,130Q8c120
